; generated by Slic3r 1.2.9 on 2017-09-04 at 16:36:18

; external perimeters extrusion width = 0.45mm
; perimeters extrusion width = 0.45mm
; infill extrusion width = 0.45mm
; solid infill extrusion width = 0.45mm
; top infill extrusion width = 0.40mm

M107
M115 U3.0.10 ; tell printer latest fw version
M83  ; extruder relative mode
M104 S215 ; set extruder temp
M140 S55 ; set bed temp
M190 S55 ; wait for bed temp
M109 S215 ; wait for extruder temp
G28 W ; home all without mesh bed level
G80 ; mesh bed leveling
G1 Y-3.0 F1000.0 ; go outside pritn area
G1 X60.0 E9.0  F1000.0 ; intro line
G1 X100.0 E12.5  F1000.0 ; intro line
G21 ; set units to millimeters
G90 ; use absolute coordinates
M83 ; use relative distances for extrusion
G1 E-0.80000 F2100.00000
G1 Z0.500 F7200.000
G1 X58.861 Y65.441 F7200.000
G1 Z0.200 F7200.000
G1 E0.80000 F2100.00000
M204 S1000
G1 X123.811 Y27.941 E2.35152 F2100.000
G1 X125.139 Y27.627 E0.04278
G1 X126.189 Y27.941 E0.03435
G1 X191.139 Y65.441 E2.35152
G1 X192.075 Y66.434 E0.04278
G1 X192.327 Y67.500 E0.03435
G1 X192.327 Y142.500 E2.35157
G1 X191.935 Y143.807 E0.04278
G1 X191.139 Y144.559 E0.03435
G1 X126.189 Y182.059 E2.35152
G1 X124.861 Y182.373 E0.04278
G1 X123.811 Y182.059 E0.03435
G1 X58.861 Y144.559 E2.35152
G1 X57.925 Y143.566 E0.04278
G1 X57.673 Y142.500 E0.03435
G1 X57.673 Y67.500 E2.35157
G1 X58.065 Y66.193 E0.04278
G1 X58.818 Y65.483 E0.03246
G1 F5760
G1 X60.718 Y64.385 E-0.76000
G1 E-0.04000 F2100.00000
G1 Z0.700 F7200.000
G1 X125.000 Y31.113 F7200.000
G1 Z0.200 F7200.000
G1 E0.80000 F2100.00000
G1 X188.986 Y68.057 E2.31661 F1680.000
G1 X188.986 Y141.943 E2.31667
G1 X125.000 Y178.887 E2.31661
G1 X61.014 Y141.943 E2.31661
G1 X61.014 Y68.057 E2.31667
G1 X124.948 Y31.143 E2.31473
G1 X125.000 Y30.678 F7200.000
G1 X189.363 Y67.839 E2.33027 F1680.000
G1 X189.363 Y142.161 E2.33032
G1 X125.000 Y179.322 E2.33027
G1 X60.637 Y142.161 E2.33027
G1 X60.637 Y67.839 E2.33032
G1 X124.948 Y30.708 E2.32838
G1 X125.000 Y30.242 F7200.000
G1 X189.740 Y67.621 E2.34392 F1260.000
G1 X189.740 Y142.379 E2.34397
G1 X125.000 Y179.758 E2.34392
G1 X60.260 Y142.379 E2.34392
G1 X60.260 Y67.621 E2.34397
G1 X124.948 Y30.272 E2.34204
G1 X125.137 Y30.618 F7200.000
G1 F5760
G1 X126.849 Y31.368 E-0.76000
G1 E-0.04000 F2100.00000
G1 Z0.700 F7200.000
G1 X125.336 Y31.577 F7200.000
G1 Z0.200 F7200.000
G1 E0.80000 F2100.00000
G1 X188.803 Y95.044 E2.82066 F1680.000
G1 X188.803 Y95.579 E0.01680
G1 X124.692 Y31.468 E2.84924
G1 X124.354 Y31.664 E0.01230
G1 X188.803 Y96.113 E2.86430
G1 X188.803 Y96.648 E0.01680
G1 X124.015 Y31.859 E2.87936
G1 X123.676 Y32.055 E0.01230
G1 X188.803 Y97.182 E2.89442
G1 X188.803 Y97.717 E0.01680
G1 X123.337 Y32.251 E2.90948
G1 X122.998 Y32.446 E0.01230
G1 X188.803 Y98.251 E2.92454
G1 X188.803 Y98.786 E0.01680
G1 X122.659 Y32.642 E2.93960
G1 X122.321 Y32.838 E0.01230
G1 X188.803 Y99.320 E2.95466
G1 X188.803 Y99.855 E0.01680
G1 X121.982 Y33.033 E2.96972
G1 X121.643 Y33.229 E0.01230
G1 X188.803 Y100.389 E2.98478
G1 X188.803 Y100.924 E0.01680
G1 X121.304 Y33.425 E2.99984
G1 X120.965 Y33.620 E0.01230
G1 X188.803 Y101.458 E3.01489
G1 X188.803 Y101.992 E0.01680
G1 X120.626 Y33.816 E3.02995
G1 X120.287 Y34.011 E0.01230
G1 X188.803 Y102.527 E3.04501
G1 X188.803 Y103.061 E0.01680
G1 X119.949 Y34.207 E3.06007
G1 X119.610 Y34.403 E0.01230
G1 X188.803 Y103.596 E3.07513
G1 X188.803 Y104.130 E0.01680
G1 X119.271 Y34.598 E3.09019
G1 X118.932 Y34.794 E0.01230
G1 X188.803 Y104.665 E3.10525
G1 X188.803 Y105.199 E0.01680
G1 X118.593 Y34.990 E3.12031
G1 X118.254 Y35.185 E0.01230
G1 X188.803 Y105.734 E3.13537
G1 X188.803 Y106.268 E0.01680
G1 X117.916 Y35.381 E3.15043
G1 X117.577 Y35.577 E0.01230
G1 X188.803 Y106.803 E3.16549
G1 X188.803 Y107.337 E0.01680
G1 X117.238 Y35.772 E3.18055
G1 X116.899 Y35.968 E0.01230
G1 X188.803 Y107.872 E3.19561
G1 X188.803 Y108.406 E0.01680
G1 X116.560 Y36.163 E3.21066
G1 X116.221 Y36.359 E0.01230
G1 X188.803 Y108.941 E3.22572
G1 X188.803 Y109.475 E0.01680
G1 X115.882 Y36.555 E3.24078
G1 X115.544 Y36.750 E0.01230
G1 X188.803 Y110.010 E3.25584
G1 X188.803 Y110.544 E0.01680
G1 X115.205 Y36.946 E3.27090
G1 X114.866 Y37.142 E0.01230
G1 X188.803 Y111.079 E3.28596
G1 X188.803 Y111.613 E0.01680
G1 X114.527 Y37.337 E3.30102
G1 X114.188 Y37.533 E0.01230
G1 X188.803 Y112.148 E3.31608
G1 X188.803 Y112.682 E0.01680
G1 X113.849 Y37.729 E3.33114
G1 X113.511 Y37.924 E0.01230
G1 X188.803 Y113.217 E3.34620
G1 X188.803 Y113.751 E0.01680
G1 X113.172 Y38.120 E3.36126
G1 X112.833 Y38.315 E0.01230
G1 X188.803 Y114.286 E3.37632
G1 X188.803 Y114.820 E0.01680
G1 X112.494 Y38.511 E3.39138
G1 X112.155 Y38.707 E0.01230
G1 X188.803 Y115.355 E3.40644
G1 X188.803 Y115.889 E0.01680
G1 X111.816 Y38.902 E3.42149
G1 X111.477 Y39.098 E0.01230
G1 X188.803 Y116.424 E3.43655
G1 X188.803 Y116.958 E0.01680
G1 X111.139 Y39.294 E3.45161
G1 X110.800 Y39.489 E0.01230
G1 X188.803 Y117.493 E3.46667
G1 X188.803 Y118.027 E0.01680
G1 X110.461 Y39.685 E3.48173
G1 X110.122 Y39.881 E0.01230
G1 X188.803 Y118.562 E3.49679
G1 X188.803 Y119.096 E0.01680
G1 X109.783 Y40.076 E3.51185
G1 X109.444 Y40.272 E0.01230
G1 X188.803 Y119.631 E3.52691
G1 X188.803 Y120.165 E0.01680
G1 X109.106 Y40.468 E3.54197
G1 X108.767 Y40.663 E0.01230
G1 X188.803 Y120.699 E3.55703
G1 X188.803 Y121.234 E0.01680
G1 X108.428 Y40.859 E3.57209
G1 X108.089 Y41.054 E0.01230
G1 X188.803 Y121.768 E3.58715
G1 X188.803 Y122.303 E0.01680
G1 X107.750 Y41.250 E3.60221
G1 X107.411 Y41.446 E0.01230
G1 X188.803 Y122.837 E3.61726
G1 X188.803 Y123.372 E0.01680
G1 X107.072 Y41.641 E3.63232
G1 X106.734 Y41.837 E0.01230
G1 X188.803 Y123.906 E3.64738
G1 X188.803 Y124.441 E0.01680
G1 X106.395 Y42.033 E3.66244
G1 X106.056 Y42.228 E0.01230
G1 X188.803 Y124.975 E3.67750
G1 X188.803 Y125.510 E0.01680
G1 X105.717 Y42.424 E3.69256
G1 X105.378 Y42.620 E0.01230
G1 X188.803 Y126.044 E3.70762
G1 X188.803 Y126.579 E0.01680
G1 X105.039 Y42.815 E3.72268
G1 X104.701 Y43.011 E0.01230
G1 X188.803 Y127.113 E3.73774
G1 X188.803 Y127.648 E0.01680
G1 X104.362 Y43.206 E3.75280
G1 X104.023 Y43.402 E0.01230
G1 X188.803 Y128.182 E3.76786
G1 X188.803 Y128.717 E0.01680
G1 X103.684 Y43.598 E3.78292
G1 X103.345 Y43.793 E0.01230
G1 X188.803 Y129.251 E3.79798
G1 X188.803 Y129.786 E0.01680
G1 X103.006 Y43.989 E3.81303
G1 X102.667 Y44.185 E0.01230
G1 X188.803 Y130.320 E3.82809
G1 X188.803 Y130.855 E0.01680
G1 X102.329 Y44.380 E3.84315
G1 X101.990 Y44.576 E0.01230
G1 X188.803 Y131.389 E3.85821
G1 X188.803 Y131.924 E0.01680
G1 X101.651 Y44.772 E3.87327
G1 X101.312 Y44.967 E0.01230
G1 X188.803 Y132.458 E3.88833
G1 X188.803 Y132.993 E0.01680
G1 X100.973 Y45.163 E3.90339
G1 X100.634 Y45.358 E0.01230
G1 X188.803 Y133.527 E3.91845
G1 X188.803 Y134.062 E0.01680
G1 X100.296 Y45.554 E3.93351
G1 X99.957 Y45.750 E0.01230
G1 X188.803 Y134.596 E3.94857
G1 X188.803 Y135.131 E0.01680
G1 X99.618 Y45.945 E3.96363
G1 X99.279 Y46.141 E0.01230
G1 X188.803 Y135.665 E3.97869
G1 X188.803 Y136.200 E0.01680
G1 X98.940 Y46.337 E3.99375
G1 X98.601 Y46.532 E0.01230
G1 X188.803 Y136.734 E4.00880
G1 X188.803 Y137.269 E0.01680
G1 X98.262 Y46.728 E4.02386
G1 X97.924 Y46.924 E0.01230
G1 X188.803 Y137.803 E4.03892
G1 X188.803 Y138.338 E0.01680
G1 X97.585 Y47.119 E4.05398
G1 X97.246 Y47.315 E0.01230
G1 X188.803 Y138.872 E4.06904
G1 X188.803 Y139.406 E0.01680
G1 X96.907 Y47.511 E4.08410
G1 X96.568 Y47.706 E0.01230
G1 X188.803 Y139.941 E4.09916
G1 X188.803 Y140.475 E0.01680
G1 X96.229 Y47.902 E4.11422
G1 X95.891 Y48.097 E0.01230
G1 X188.803 Y141.010 E4.12928
G1 X188.803 Y141.544 E0.01680
G1 X95.552 Y48.293 E4.14434
G1 X95.213 Y48.489 E0.01230
G1 X188.672 Y141.947 E4.15356
G1 X188.333 Y142.143 E0.01230
G1 X94.874 Y48.684 E4.15356
G1 X94.535 Y48.880 E0.01230
G1 X187.994 Y142.339 E4.15356
G1 X187.655 Y142.534 E0.01230
G1 X94.196 Y49.076 E4.15356
G1 X93.857 Y49.271 E0.01230
G1 X187.316 Y142.730 E4.15356
G1 X186.977 Y142.926 E0.01230
G1 X93.519 Y49.467 E4.15356
G1 X93.180 Y49.663 E0.01230
G1 X186.639 Y143.121 E4.15356
G1 X186.300 Y143.317 E0.01230
G1 X92.841 Y49.858 E4.15356
G1 X92.502 Y50.054 E0.01230
G1 X185.961 Y143.513 E4.15356
G1 X185.622 Y143.708 E0.01230
G1 X92.163 Y50.249 E4.15356
G1 X91.824 Y50.445 E0.01230
G1 X185.283 Y143.904 E4.15356
G1 X184.944 Y144.100 E0.01230
G1 X91.486 Y50.641 E4.15356
G1 X91.147 Y50.836 E0.01230
G1 X184.605 Y144.295 E4.15356
G1 X184.267 Y144.491 E0.01230
G1 X90.808 Y51.032 E4.15356
G1 X90.469 Y51.228 E0.01230
G1 X183.928 Y144.686 E4.15356
G1 X183.589 Y144.882 E0.01230
G1 X90.130 Y51.423 E4.15356
G1 X89.791 Y51.619 E0.01230
G1 X183.250 Y145.078 E4.15356
G1 X182.911 Y145.273 E0.01230
G1 X89.452 Y51.815 E4.15356
G1 X89.114 Y52.010 E0.01230
G1 X182.572 Y145.469 E4.15356
G1 X182.234 Y145.665 E0.01230
G1 X88.775 Y52.206 E4.15356
G1 X88.436 Y52.402 E0.01230
G1 X181.895 Y145.860 E4.15356
G1 X181.556 Y146.056 E0.01230
G1 X88.097 Y52.597 E4.15356
G1 X87.758 Y52.793 E0.01230
G1 X181.217 Y146.252 E4.15356
G1 X180.878 Y146.447 E0.01230
G1 X87.419 Y52.988 E4.15356
G1 X87.081 Y53.184 E0.01230
G1 X180.539 Y146.643 E4.15356
G1 X180.200 Y146.838 E0.01230
G1 X86.742 Y53.380 E4.15356
G1 X86.403 Y53.575 E0.01230
G1 X179.862 Y147.034 E4.15356
G1 X179.523 Y147.230 E0.01230
G1 X86.064 Y53.771 E4.15356
G1 X85.725 Y53.967 E0.01230
G1 X179.184 Y147.425 E4.15356
G1 X178.845 Y147.621 E0.01230
G1 X85.386 Y54.162 E4.15356
G1 X85.047 Y54.358 E0.01230
G1 X178.506 Y147.817 E4.15356
G1 X178.167 Y148.012 E0.01230
G1 X84.709 Y54.554 E4.15356
G1 X84.370 Y54.749 E0.01230
G1 X177.829 Y148.208 E4.15356
G1 X177.490 Y148.404 E0.01230
G1 X84.031 Y54.945 E4.15356
G1 X83.692 Y55.140 E0.01230
G1 X177.151 Y148.599 E4.15356
G1 X176.812 Y148.795 E0.01230
G1 X83.353 Y55.336 E4.15356
G1 X83.014 Y55.532 E0.01230
G1 X176.473 Y148.990 E4.15356
G1 X176.134 Y149.186 E0.01230
G1 X82.676 Y55.727 E4.15356
G1 X82.337 Y55.923 E0.01230
G1 X175.795 Y149.382 E4.15356
G1 X175.457 Y149.577 E0.01230
G1 X81.998 Y56.119 E4.15356
G1 X81.659 Y56.314 E0.01230
G1 X175.118 Y149.773 E4.15356
G1 X174.779 Y149.969 E0.01230
G1 X81.320 Y56.510 E4.15356
G1 X80.981 Y56.706 E0.01230
G1 X174.440 Y150.164 E4.15356
G1 X174.101 Y150.360 E0.01230
G1 X80.642 Y56.901 E4.15356
G1 X80.304 Y57.097 E0.01230
G1 X173.762 Y150.556 E4.15356
G1 X173.424 Y150.751 E0.01230
G1 X79.965 Y57.292 E4.15356
G1 X79.626 Y57.488 E0.01230
G1 X173.085 Y150.947 E4.15356
G1 X172.746 Y151.143 E0.01230
G1 X79.287 Y57.684 E4.15356
G1 X78.948 Y57.879 E0.01230
G1 X172.407 Y151.338 E4.15356
G1 X172.068 Y151.534 E0.01230
G1 X78.609 Y58.075 E4.15356
G1 X78.271 Y58.271 E0.01230
G1 X171.729 Y151.729 E4.15356
G1 X171.390 Y151.925 E0.01230
G1 X77.932 Y58.466 E4.15356
G1 X77.593 Y58.662 E0.01230
G1 X171.052 Y152.121 E4.15356
G1 X170.713 Y152.316 E0.01230
G1 X77.254 Y58.858 E4.15356
G1 X76.915 Y59.053 E0.01230
G1 X170.374 Y152.512 E4.15356
G1 X170.035 Y152.708 E0.01230
G1 X76.576 Y59.249 E4.15356
G1 X76.237 Y59.445 E0.01230
G1 X169.696 Y152.903 E4.15356
G1 X169.357 Y153.099 E0.01230
G1 X75.899 Y59.640 E4.15356
G1 X75.560 Y59.836 E0.01230
G1 X169.019 Y153.295 E4.15356
G1 X168.680 Y153.490 E0.01230
G1 X75.221 Y60.031 E4.15356
G1 X74.882 Y60.227 E0.01230
G1 X168.341 Y153.686 E4.15356
G1 X168.002 Y153.881 E0.01230
G1 X74.543 Y60.423 E4.15356
G1 X74.204 Y60.618 E0.01230
G1 X167.663 Y154.077 E4.15356
G1 X167.324 Y154.273 E0.01230
G1 X73.866 Y60.814 E4.15356
G1 X73.527 Y61.010 E0.01230
G1 X166.985 Y154.468 E4.15356
G1 X166.647 Y154.664 E0.01230
G1 X73.188 Y61.205 E4.15356
G1 X72.849 Y61.401 E0.01230
G1 X166.308 Y154.860 E4.15356
G1 X165.969 Y155.055 E0.01230
G1 X72.510 Y61.597 E4.15356
G1 X72.171 Y61.792 E0.01230
G1 X165.630 Y155.251 E4.15356
G1 X165.291 Y155.447 E0.01230
G1 X71.832 Y61.988 E4.15356
G1 X71.494 Y62.183 E0.01230
G1 X164.952 Y155.642 E4.15356
G1 X164.614 Y155.838 E0.01230
G1 X71.155 Y62.379 E4.15356
G1 X70.816 Y62.575 E0.01230
G1 X164.275 Y156.034 E4.15356
G1 X163.936 Y156.229 E0.01230
G1 X70.477 Y62.770 E4.15356
G1 X70.138 Y62.966 E0.01230
G1 X163.597 Y156.425 E4.15356
G1 X163.258 Y156.620 E0.01230
G1 X69.799 Y63.162 E4.15356
G1 X69.460 Y63.357 E0.01230
G1 X162.919 Y156.816 E4.15356
G1 X162.580 Y157.012 E0.01230
G1 X69.122 Y63.553 E4.15356
G1 X68.783 Y63.749 E0.01230
G1 X162.242 Y157.207 E4.15356
G1 X161.903 Y157.403 E0.01230
G1 X68.444 Y63.944 E4.15356
G1 X68.105 Y64.140 E0.01230
G1 X161.564 Y157.599 E4.15356
G1 X161.225 Y157.794 E0.01230
G1 X67.766 Y64.335 E4.15356
G1 X67.427 Y64.531 E0.01230
G1 X160.886 Y157.990 E4.15356
G1 X160.547 Y158.186 E0.01230
G1 X67.089 Y64.727 E4.15356
G1 X66.750 Y64.922 E0.01230
G1 X160.208 Y158.381 E4.15356
G1 X159.870 Y158.577 E0.01230
G1 X66.411 Y65.118 E4.15356
G1 X66.072 Y65.314 E0.01230
G1 X159.531 Y158.772 E4.15356
G1 X159.192 Y158.968 E0.01230
G1 X65.733 Y65.509 E4.15356
G1 X65.394 Y65.705 E0.01230
G1 X158.853 Y159.164 E4.15356
G1 X158.514 Y159.359 E0.01230
G1 X65.055 Y65.901 E4.15356
G1 X64.717 Y66.096 E0.01230
G1 X158.175 Y159.555 E4.15356
G1 X157.837 Y159.751 E0.01230
G1 X64.378 Y66.292 E4.15356
G1 X64.039 Y66.488 E0.01230
G1 X157.498 Y159.946 E4.15356
G1 X157.159 Y160.142 E0.01230
G1 X63.700 Y66.683 E4.15356
G1 X63.361 Y66.879 E0.01230
G1 X156.820 Y160.338 E4.15356
G1 X156.481 Y160.533 E0.01230
G1 X63.022 Y67.074 E4.15356
G1 X62.684 Y67.270 E0.01230
G1 X156.142 Y160.729 E4.15356
G1 X155.803 Y160.924 E0.01230
G1 X62.345 Y67.466 E4.15356
G1 X62.006 Y67.661 E0.01230
G1 X155.465 Y161.120 E4.15356
G1 X155.126 Y161.316 E0.01230
G1 X61.667 Y67.857 E4.15356
G1 X61.328 Y68.053 E0.01230
G1 X154.787 Y161.511 E4.15356
G1 X154.448 Y161.707 E0.01230
G1 X61.197 Y68.456 E4.14433
G1 X61.197 Y68.990 E0.01680
G1 X154.109 Y161.903 E4.12927
G1 X153.770 Y162.098 E0.01230
G1 X61.197 Y69.525 E4.11421
G1 X61.197 Y70.059 E0.01680
G1 X153.432 Y162.294 E4.09915
G1 X153.093 Y162.490 E0.01230
G1 X61.197 Y70.594 E4.08409
G1 X61.197 Y71.128 E0.01680
G1 X152.754 Y162.685 E4.06903
G1 X152.415 Y162.881 E0.01230
G1 X61.197 Y71.663 E4.05397
G1 X61.197 Y72.197 E0.01680
G1 X152.076 Y163.077 E4.03891
G1 X151.737 Y163.272 E0.01230
G1 X61.197 Y72.732 E4.02386
G1 X61.197 Y73.266 E0.01680
G1 X151.398 Y163.468 E4.00880
G1 X151.060 Y163.663 E0.01230
G1 X61.197 Y73.801 E3.99374
G1 X61.197 Y74.335 E0.01680
G1 X150.721 Y163.859 E3.97868
G1 X150.382 Y164.055 E0.01230
G1 X61.197 Y74.870 E3.96362
G1 X61.197 Y75.404 E0.01680
G1 X150.043 Y164.250 E3.94856
G1 X149.704 Y164.446 E0.01230
G1 X61.197 Y75.939 E3.93350
G1 X61.197 Y76.473 E0.01680
G1 X149.365 Y164.642 E3.91844
G1 X149.027 Y164.837 E0.01230
G1 X61.197 Y77.008 E3.90338
G1 X61.197 Y77.542 E0.01680
G1 X148.688 Y165.033 E3.88832
G1 X148.349 Y165.229 E0.01230
G1 X61.197 Y78.077 E3.87326
G1 X61.197 Y78.611 E0.01680
G1 X148.010 Y165.424 E3.85820
G1 X147.671 Y165.620 E0.01230
G1 X61.197 Y79.146 E3.84314
G1 X61.197 Y79.680 E0.01680
G1 X147.332 Y165.815 E3.82808
G1 X146.993 Y166.011 E0.01230
G1 X61.197 Y80.215 E3.81303
G1 X61.197 Y80.749 E0.01680
G1 X146.655 Y166.207 E3.79797
G1 X146.316 Y166.402 E0.01230
G1 X61.197 Y81.284 E3.78291
G1 X61.197 Y81.818 E0.01680
G1 X145.977 Y166.598 E3.76785
G1 X145.638 Y166.794 E0.01230
G1 X61.197 Y82.353 E3.75279
G1 X61.197 Y82.887 E0.01680
G1 X145.299 Y166.989 E3.73773
G1 X144.960 Y167.185 E0.01230
G1 X61.197 Y83.421 E3.72267
G1 X61.197 Y83.956 E0.01680
G1 X144.622 Y167.381 E3.70761
G1 X144.283 Y167.576 E0.01230
G1 X61.197 Y84.490 E3.69255
G1 X61.197 Y85.025 E0.01680
G1 X143.944 Y167.772 E3.67749
G1 X143.605 Y167.967 E0.01230
G1 X61.197 Y85.559 E3.66243
G1 X61.197 Y86.094 E0.01680
G1 X143.266 Y168.163 E3.64737
G1 X142.927 Y168.359 E0.01230
G1 X61.197 Y86.628 E3.63231
G1 X61.197 Y87.163 E0.01680
G1 X142.588 Y168.554 E3.61726
G1 X142.250 Y168.750 E0.01230
G1 X61.197 Y87.697 E3.60220
G1 X61.197 Y88.232 E0.01680
G1 X141.911 Y168.946 E3.58714
G1 X141.572 Y169.141 E0.01230
G1 X61.197 Y88.766 E3.57208
G1 X61.197 Y89.301 E0.01680
G1 X141.233 Y169.337 E3.55702
G1 X140.894 Y169.533 E0.01230
G1 X61.197 Y89.835 E3.54196
G1 X61.197 Y90.370 E0.01680
G1 X140.555 Y169.728 E3.52690
G1 X140.217 Y169.924 E0.01230
G1 X61.197 Y90.904 E3.51184
G1 X61.197 Y91.439 E0.01680
G1 X139.878 Y170.120 E3.49678
G1 X139.539 Y170.315 E0.01230
G1 X61.197 Y91.973 E3.48172
